X:1
T: Sanny Spiers
C:A.M. Volti
P:Ending adapted by Bruce Shawyer
R:Strathspey
Q: 128
K:C
M:4/4
L:1/16
D4:|GG3 G3B d3B G3B|d3g f3g e3d c3B|AA3 A3B c3B A3G|F3A E3A F3D E3F|
GG3 G3B d3B G3B|d3g f3g e3d c3B|AA3 A3B c3B A3G|F3D E3F G4 B4|
ee3 ^d3e B3e G3B|E3e ^d3e g3e B3G|dd3 ^c3d A3d F3A|D3d ^c3d f3d A3F|
ee3 ^d3e B3e G3B|E3e ^d3e g3e B3G|g3a b3a g3f e3d|f3d e3f g4:|
